fs/device_eq_20_filled.svg

<svg viewBox="0 0 20 20" fill="none" xmlns="http://www.w3.org/2000/svg" height="1em" width="1em">
  <path d="M10 2C10.4142 2 10.75 2.33579 10.75 2.75V17.25C10.75 17.6642 10.4142 18 10 18C9.58579 18 9.25 17.6642 9.25 17.25V2.75C9.25 2.33579 9.58579 2 10 2ZM13.75 5C14.1642 5 14.5 5.33579 14.5 5.75V14.25C14.5 14.6642 14.1642 15 13.75 15C13.3358 15 13 14.6642 13 14.25V5.75C13 5.33579 13.3358 5 13.75 5ZM7 5.75C7 5.33579 6.66421 5 6.25 5C5.83579 5 5.5 5.33579 5.5 5.75V14.25C5.5 14.6642 5.83579 15 6.25 15C6.66421 15 7 14.6642 7 14.25V5.75ZM17.25 8C17.6642 8 18 8.33579 18 8.75V11.25C18 11.6642 17.6642 12 17.25 12C16.8358 12 16.5 11.6642 16.5 11.25V8.75C16.5 8.33579 16.8358 8 17.25 8ZM3.5 8.75C3.5 8.33579 3.16421 8 2.75 8C2.33579 8 2 8.33579 2 8.75V11.25C2 11.6642 2.33579 12 2.75 12C3.16421 12 3.5 11.6642 3.5 11.25V8.75Z" fill="#212121"/>
</svg>

<svg viewBox="0 0 20 20" fill="none" xmlns="http://www.w3.org/2000/svg" height="1em" width="1em">
  <path d="M10 2a.75.75 0 0 1 .75.75v14.5a.75.75 0 0 1-1.5 0V2.75A.75.75 0 0 1 10 2Zm3.75 3a.75.75 0 0 1 .75.75v8.5a.75.75 0 0 1-1.5 0v-8.5a.75.75 0 0 1 .75-.75ZM7 5.75a.75.75 0 0 0-1.5 0v8.5a.75.75 0 0 0 1.5 0v-8.5ZM17.25 8a.75.75 0 0 1 .75.75v2.5a.75.75 0 0 1-1.5 0v-2.5a.75.75 0 0 1 .75-.75ZM3.5 8.75a.75.75 0 0 0-1.5 0v2.5a.75.75 0 0 0 1.5 0v-2.5Z" fill="#212121"/>
</svg>
